!!!!SEGMENT: Lhe2023-Nigra_sum.krn
!!!id: Lhe2023
!!!AGN: Motet
!!!SCT: Perkins (1969)
!!!voices: 4
!!!COM: Jean Lhéritier
!!!OTL: Nigra sum
**kern	**kern	**kern	**kern
*part4	*part3	*part2	*part1
*staff4	*staff3	*staff2	*staff1
*I"Bassus	*I"Tenor	*I"Altus	*I"Superius
*I'B	*I'T	*I'A	*I'S
*clefF4	*clefGv2	*clefG2	*clefG2
*k[]	*k[]	*k[]	*k[]
*C:	*C:	*C:	*C:
*M2/1	*M2/1	*M2/1	*M2/1
*met(C|)	*met(C|)	*met(C|)	*met(C|)
!!section: Prima pars: Nigra sum
!!!OMD: Prima pars: Nigra sum
=1	=1	=1	=1
0r	0r	0r	0a
=2	=2	=2	=2
0r	0r	0r	1a
.	.	.	[1b
=3	=3	=3	=3
0r	0r	0e	2b]
.	.	.	2g
.	.	.	1cc
=4	=4	=4	=4
0r	0r	1e	1b
.	.	[1f	2.a
.	.	.	4b
=5	=5	=5	=5
0r	0A	2f]	4cc
.	.	.	4dd
.	.	2c	2.ee
.	.	1f	.
.	.	.	4dd
.	.	.	[2dd
=6	=6	=6	=6
0r	1A	1e	2dd]
.	.	.	2cc
.	[1B	1d	2.dd
.	.	.	4cc
=7	=7	=7	=7
0E	2B]	1.g	4b
.	.	.	4a
.	2G	.	2.b
.	1c	.	.
.	.	.	4a
.	.	2f	[2a
=8	=8	=8	=8
1E	1B	1e	2a]
.	.	.	2g
[1F	2.A	1c	4cc
.	.	.	4b
.	.	.	4a
.	4B	.	4g
=9	=9	=9	=9
2F]	2c	1f	2a
2D	2d	.	2.b
1F	1A	1d	.
.	.	.	4a
.	.	.	[2a
=10	=10	=10	=10
1E	1B	1e	2a]
.	.	.	2g#i
2.D	2r	2A	[1a
.	[2d	[2f	.
4E	.	.	.
=11	=11	=11	=11
4F	2d]	2f]	1a]
4G	.	.	.
2.A	2c	2e	.
.	1d	1f	1r
4D	.	.	.
[2d	.	.	.
=12	=12	=12	=12
2d]	1A	1e	1a
2c#i	.	.	.
1d	1f	2r	1a
.	.	[2d	.
=13	=13	=13	=13
1.G	1g	2d]	1.b
.	.	2d	.
.	1g	[1e	.
2E	.	.	2g
=14	=14	=14	=14
1A	1c	2e]	1cc
.	.	2c	.
1G	2r	1g	1b
.	[2d	.	.
=15	=15	=15	=15
1r	2d]	1f	2.a
.	2d	.	.
.	.	.	4b
1A	2e	2e	4cc
.	.	.	4dd
.	2c	[2a	[2ee
=16	=16	=16	=16
1d	1f	2a]	4ee]
.	.	.	4dd
.	.	2a	1dd
1A	1e	1a	.
.	.	.	2cc#i
=17	=17	=17	=17
0D	1d	[0f	[0dd
.	[1a	.	.
=18	=18	=18	=18
1.d	2a]	1f]	0dd]
.	2g	.	.
.	2f	1r	.
2c	2e	.	.
=19	=19	=19	=19
2B	2d	0r	0r
2A	2f	.	.
2G	2e	.	.
2F	[2d	.	.
=20	=20	=20	=20
1E	2d]	1.g	1r
.	2c#i	.	.
1D	1d	.	[1dd
.	.	2f	.
=21	=21	=21	=21
1A	0r	1e	2dd]
.	.	.	2cc
1D	.	2d	2b
.	.	2f	2a
=22	=22	=22	=22
0r	1r	2e	2g
.	.	1d	2f
.	[1g	.	1e
.	.	2c#i	.
=23	=23	=23	=23
1.d	2g]	1d	1d
.	2f	.	.
.	1e	[1a	1r
2c	.	.	.
=24	=24	=24	=24
1B	1d	2a]	1.dd
.	.	2g	.
1A	1e	1a	.
.	.	.	2cc
=25	=25	=25	=25
1D	1d	1f	2b
.	.	.	2a
2E	2B	2e	2g
2C	2e	[2g	2cc
=26	=26	=26	=26
2G	2d	2g]	2b
2A	2c	2f	1a
1E	1B	[1e	.
.	.	.	2g#i
=27	=27	=27	=27
1r	1A	2e]	[0a
.	.	2c	.
[1A	2r	[1c	.
.	[2e	.	.
=28	=28	=28	=28
2A]	2e]	1c]	0a]
2A	2e	.	.
[1d	[1f	1r	.
=29	=29	=29	=29
2d]	2f]	1.a	0r
2c	2e	.	.
2d	2f	.	.
2B	2d	2g	.
=30	=30	=30	=30
2A	1e	2.a	1.ee
2c	.	.	.
.	.	4g	.
2d	[1a	2f	.
2d	.	2f	2dd
=31	=31	=31	=31
1A	2a]	0e	2.ee
.	2a	.	.
.	.	.	4dd
1c	[1g	.	2cc
.	.	.	2cc
=32	=32	=32	=32
1G	2g]	2r	2.b
.	2d	2g	.
.	.	.	4cc
[1d	2f	2a	4dd
.	.	.	4ee
.	4d	4f	2ff
.	4e	4g	.
=33	=33	=33	=33
2d]	4f	4a	2dd
.	4g	4b	.
2A	1a	1cc	2.ff
1c	.	.	.
.	.	.	4ee
.	2g	2cc	[2ee
=34	=34	=34	=34
1d	1f	0a	2ee]
.	.	.	2dd
1A	1e	.	1ee
=35	=35	=35	=35
1.c	1.e	1.g	1.cc
2G	2d	2g	2b
=36	=36	=36	=36
1G	1.d	2g	4b
.	.	.	4cc
.	.	2b	4dd
.	.	.	4ee
2r	.	2a	2ff
2A	[2a	[2cc	[2ee
=37	=37	=37	=37
2c	4a]	2cc]	2ee]
.	4g	.	.
2d	2f	2a	1dd
1A	1e	1a	.
.	.	.	2cc#i
=38	=38	=38	=38
0D	1.f	2r	1dd
.	.	1a	.
.	.	.	2r
.	2d	2a	[2dd
=39	=39	=39	=39
0r	1d	2a	2dd]
.	.	2a	2dd
.	1r	1b	2dd
.	.	.	2dd
=40	=40	=40	=40
0r	0r	2g	1ee
.	.	1cc	.
.	.	.	2dd
.	.	2b	[2gg
=41	=41	=41	=41
0r	0r	2.a	2gg]
.	.	.	2ff
.	.	4b	.
.	.	4cc	2ee
.	.	4a	.
.	.	[2b	2dd
=42	=42	=42	=42
0r	1r	4b]	1cc
.	.	4a	.
.	.	1a	.
.	[1e	.	1b
.	.	2g#i	.
=43	=43	=43	=43
1.A	2e]	[0a	[0cc
.	2e	.	.
.	2e	.	.
2A	2e	.	.
=44	=44	=44	=44
2A	1f	1a]	1cc]
2A	.	.	.
2B	2d	1r	1r
2G	[2g	.	.
=45	=45	=45	=45
1.c	2g]	0r	0r
.	2f	.	.
.	2e	.	.
2B	2d	.	.
=46	=46	=46	=46
2A	2c	1r	1.ee
2.c	2.e	.	.
.	.	[1a	.
4B	4d	.	.
4A	[2d	.	2ee
4G	.	.	.
=47	=47	=47	=47
1A	2d]	2a]	2ee
.	2c#i	2a	2ee
1D	[1d	2a	1ff
.	.	2a	.
=48	=48	=48	=48
1G	1d]	1b	2dd
.	.	.	1gg
1C	[1g	2g	.
.	.	[2cc	2ff
=49	=49	=49	=49
1G	2g]	2cc]	2ee
.	2f	2b	2dd
1A	2e	2a	2cc
.	2c	2a	[2ee
=50	=50	=50	=50
1B	1d	2f	4ee]
.	.	.	4dd
.	.	2g	1dd
1A	1e	1a	.
.	.	.	2cc#i
=51	=51	=51	=51
2.B-i	2d	2.f	0dd
.	1f	.	.
8AL	.	4g	.
8GJ	.	.	.
2F	.	2a	.
[2G	2e	[2b-i	.
=52	=52	=52	=52
2G]	2.d	4b-]	1r
.	.	4a	.
2F	.	1a	.
.	4c	.	.
1G	1B	.	1dd
.	.	2g	.
=53	=53	=53	=53
1D	0A	2a	1.ff
.	.	4f	.
.	.	4g	.
1r	.	4a	.
.	.	4b	.
.	.	2cc	2ee
=54	=54	=54	=54
0r	1r	2b	2dd
.	.	1a	2cc
.	1e	.	1b
.	.	2g#i	.
=55	=55	=55	=55
1A	1.f	2a	1a
.	.	2A	.
[1B	.	[1d	1r
.	2e	.	.
=56	=56	=56	=56
2B]	2d	2d]	1r
2A	2.e	2c	.
2G	.	2B	1dd
.	4d	.	.
2F	[2d	[2A	.
=57	=57	=57	=57
1E	2d]	2A]	1.gg
.	2c#i	2G	.
4D	2d	2A	.
4E	.	.	.
4F	2d	[2a	2ff
4G	.	.	.
=58	=58	=58	=58
2A	2c	4a]	2ee
.	.	4g	.
2B	2d	4g	1dd
.	.	8fL	.
.	.	8gJ	.
1A	1e	1a	.
.	.	.	2cc#i
=59	=59	=59	=59
0D	1.f	2r	1dd
.	.	1a	.
.	.	.	2r
.	2d	2a	[2dd
=60	=60	=60	=60
0r	1d	2a	2dd]
.	.	2a	2dd
.	1r	1b	2dd
.	.	.	2dd
=61	=61	=61	=61
0r	0r	2g	1ee
.	.	1cc	.
.	.	.	2dd
.	.	2b	[2gg
=62	=62	=62	=62
0r	0r	2.a	2gg]
.	.	.	2ff
.	.	4b	.
.	.	4cc	2ee
.	.	4a	.
.	.	[2b	2dd
=63	=63	=63	=63
0r	1r	4b]	1cc
.	.	4a	.
.	.	1a	.
.	[1e	.	1b
.	.	2g	.
=64	=64	=64	=64
1.A	2e]	[0a	[0cc
.	2e	.	.
.	2e	.	.
2A	2e	.	.
=65	=65	=65	=65
2A	1f	1a]	1cc]
2A	.	.	.
2B	2d	1r	1r
2G	[2g	.	.
=66	=66	=66	=66
1.c	2g]	0r	0r
.	2f	.	.
.	2e	.	.
2B	2d	.	.
=67	=67	=67	=67
2A	2c	1r	1.ee
2.c	2.e	.	.
.	.	[1a	.
4B	4d	.	.
4A	[2d	.	2ee
4G	.	.	.
=68	=68	=68	=68
1A	2d]	2a]	2ee
.	2c#i	2a	2ee
1D	[1d	2a	1ff
.	.	2a	.
=69	=69	=69	=69
1G	1d]	1b	2dd
.	.	.	1gg
1C	[1g	2g	.
.	.	[2cc	2ff
=70	=70	=70	=70
1G	2g]	2cc]	2ee
.	2f	2b	2dd
1A	2e	2a	2cc
.	2c	2g	[2ee
=71	=71	=71	=71
1B	1d	2f	4ee]
.	.	.	4dd
.	.	2g	1dd
1A	1e	1a	.
.	.	.	2cc#i
=72	=72	=72	=72
2.B-i	2d	2.f	[0ddl
.	1f	.	.
8AL	.	4g	.
8GJ	.	.	.
2F	.	2a	.
[2G	2e	[2b-i	.
=73	=73	=73	=73
2G]	2.d	4b-]	0dd_
.	.	4a	.
2F	.	1a	.
.	4c	.	.
1G	1B	.	.
.	.	2g	.
=74	=74	=74	=74
[0Dl	[0Al	1.a	0dd_
.	.	2f	.
=75	=75	=75	=75
00D]	00A]	00fl	00dd]
==	==	==	==
*-	*-	*-	*-
!!!system-decoration: [*]
!!!RDF**kern: i = editorial accidental
!!!RDF**kern: l = terminal long
!!!ENC: Benjamin Ory
!!!END: 2022/4/22
!!!EED: Benjamin Ory
!!!EEV: 2022/04/22
!!!YEC: Copyright 2022 Benjamin Ory, All Rights Reserved
!!!ONB: Translated from MusicXML on 2022/04/22
